**kern
*staff1
=1-
*clefG2
*k[]
*F:
*M4/4
{8f/L
8g/
8a/
8b-/J
8cc/L
8a/J
12b-\L
12cc\
12b-\J
=2
8a/L
8g/
8f#/
8a/J
8cc\L
8ee-\
8cc\
8cc#\J
=3
8dd\L
8dd-\
8cc\
8b\J
8b-/L
8a/
8g/
8f/J
=4
8e/L
8g/
8b-/
8dd-/J
8cc/L
8b-/
8a/
8g/J
=5
8f/L
8e/
8d/
8d-/J
8c/L
8B-/
8A/
8G/J
=6
8F#/L
8A/
8c/
8e-/J
8c/L
8c#/
8d/
8A/J
=7
8c/L
8A/J
12B-/L
12d/
12f/J
8a/L
8g/
8e/
8c/J
=8
8g/L
8a-/
8e/
8c/J
8d/L
8B-/
8G/
8A/J
=9
8c/L
8A/
8B-/
8d-/J
8g/L
8e-/
8c/
8Bn/J}
=10
1r
=11
8r
{8g/L
8e-/
8B/J
8B-/L
8G/
8A/
8f#/J
=12
8e-/L
8en/
8f/
8A/J
8B-/L
8e-/
8c/
8c#/J
=13
8d/L
8d-/
8c/
8B/J
8B-/L
8A/
8G/
8F/J
=14
8E/L
8G/
8B-/
8d-/J
8c/L
8B-/J
12A/L
12c/
12e/J
=15
4g/
8r
[8cc\
8cc\]
4g/
[8a-/
=16
8a-/]
4cc\
8ee\
16dd\LL
16ee\
16cc\
16dd\J
8b-\
16an\L
16b-\JJ
=17
4a/}
4r
2r
=18||
8r
{8g#/
12a\L
12cc\
12ee\J
8gg\L
8ff\
8ee\
8b\J}
=19
2r
8r
{8f#/
16g\LL
16b-\
16dd\
[16ff\JJ
=20
8ff\L]
8dd\
8ee-\
8een\J
8cc\L
8cc#\
8dd\
8ccn\J
=21
8b-/L
8g/J
12a\L
12b-\
12bn\J
8cc/L
8a/J
12b-\L
12cc\
12b-\J
=22
8a/L
8g/
8f#/
8A/J
8c/L
8e-/
8c/
8c#/J
=23
8d/L
8d-/
8c/
8B/J
8B-/L
8A/
8G/
8F/J
=24
8E/L
8G/
8B-/
8d-/J
8c/L
8B-/
8dn/
8f/J
=25
8g/L
8g-/
8f/
8e/J
8e-/L
8G/
8G#/
8A/J
=26
8d/L
8d-/J
4c/}
4r
8r
{8A/
=27
8c/L
8B-/
8A/
8B-/J
8d/L
8f/
8g/
8a/J
=28
8cc/L
8a/J
12b-\L
12cc\
12b-\J
8a/L
8f/
8d/
8c/J
=29
8g/L
8c/
8e/
8g/J
8g-/L
8e-/
8B/
8A-/J
=30
8f/L
8d/
8e-/
8en/J
8c/L
8c#/
8d/
8cn/J
=31
8B-/L
8A-/J
12An/L
12c/
12e/J
24g/LL
24a-/
24g/JJ
8f/}
4r
=32
2r
2r
=33
4r
{8g/L
8a-/J
8cc\L
8ee-\J
12dd-\L
12ee-\
12dd-\J
=34||
8cc\L
8b-\
8a\
8cc\J
8ee-\L
8gg-\
8ff\
8een\J
=35
8ee-\L
8cc\J
12dd-\L
12ee-\
12dd-\J
8cc\L
8b\
8b-\
8a\J
=36
8a-/L
8g/
8g-/
8f/J
8e/L
8B-/
8d-/
8e/J
=37
8e-/L
8d-/J
12c/L
12e-/
12g/J
8b-/L
8g/
8e-/
8c/J
=38
8g/L
8g-/
8e-/
8d/J
8d-/L
8e-/
8c/
8A/J
=39
8B-/L
8c/
8d-/
8e-/J
8f/L
8a-/
8cc/
8ee-/J
=40
4b\}
4r
2r
=41
8r
{8B/
12c/L
12e-/
12g/J
8b-/L
8a-/J}
4r
=42
8r
{16ee\LL
16ee-\JJ
12dd/L
12f#/
12a/J
8cc#\L
8b\J}
4r
=43
8r
{[8ff\L
8ff\]
[8ee\J
8ee\L]
16ee-\L
16dd\JJ
4dd-\
=44
8r
8B-/
12d-/L
12f/
12a-/J
8cc\L
8b\J}
4r
=45
4r
{12g/L
12a-/
12an/J
8b-/L
8g/
8a-/
8f/J
=46
8d-/L
8B-/
8c/
8e-/J}
4r
{12dd\L
12dd#\
12ee\J
=47
12cc\L
12cc#\
12dd\J
12b-\L
12bn\
12ccn\J
4g/}
4r
=48
8r
{16cc/LL
16b-/J
8a-/
8e-/J
8d/L
8d-/
8c/
8B-/J
=49
8A/L
8c/
8d/
8e/J
8g/L
8f/
8e/
8d/J
=50||
8c/L
8B-/
8A/
8G/J
8F#/L
8G/
8A/
8F#/J
=51
8G/L
8A/
8B-/
8c/J
8d/L
8d-/
8c/
8Bn/J
=52
8B-/L
8A/J
4G/}
4r
{8B-/L
8d-/J
=53
8c/L
8B-/
8A/
8B-/J
8g/L
8f/
8e/
8A/J
=54
8c/L
8e-/
8c/
8c#/J
8d/L
8c#/
8cn/
8B/J
=55
8B-/L
8A/
8G/
8G-/J
8A/L
[8G-/J
4G-/]}
=56
2r
4r
{12cc\L
12dd\
12ee\J
=57
4ff\
4r
8ee-\L
8cc\J
4r
=58
4r
8b-/L
8a/J
8g/L
8g-/
8f/
8e-/J
=59
8d/L
8F/
8G/
8A/J
8c/L
8B-/
8A/
8B-/J
=60
8d-/L
8f/
8g/
8a/J
8cc/L
8a/J
12b-\L
12cc\
12b-\J
=61
8a\L
8cc\
8ee\
8gg\J
8ee-\L
8b\J}
4r
=62
2r
{8f#/L
8g/
8b-/
8dd/J
=63
8ff\L
8dd\
8ee-\
8een\J
8cc\L
8cc#\
8dd\
8cc#\J
=64
8cc\L
8b\
8b-\
8a\J
8g/L
8f/
8e/
8g/J
=65
8b-\L
8dd-\
8cc\
8a\J
12b-\L
12cc\
12b-\J
8a/L
8a-/J
=66
8g/L
8e/J}
4r
4r
8r
{8B/
=67
8g/L
8c/
8e/
8g/J
8g-/L
8e-/
8B/
8A-/J
=68
8f/L
8d/
8B-/
8G/J
8f/L
8d-/
8B-/
8G-/J
=69
2e/}
2r
=70||
1r
=71
1r
=72
1r
=73
1r
=74
1r
=75
1r
=76
1r
=77
1r
=78
1r
=79
1r
=80
1r
=81
1r
=82
1r
=83
1r
=84
1r
=85
1r
=86
1r
=87
1r
=88
1r
=89
1r
=90
1r
=91
1r
=92
1r
=93
1r
=94
1r
=95
1r
=96
1r
=97
1r
=98
1r
=99
1r
=100
1r
=101
1r
=102
1r
=103
1r
=104
1r
=105
1r
=106
1r
=107
1r
=108
1r
=109
1r
=110
1r
=111
1r
=112
1r
=113
1r
=114
1r
=115
1r
=116
1r
=117
1r
=118
1r
=119
1r
=120
1r
=121
1r
=122
1r
=123
1r
=124
1r
=125
1r
=126
1r
=127
1r
=128
1r
=129
1r
=130
1r
=131
1r
=132
1r
=133
1r
=134
1r
=135
1r
=136
1r
=137
1r
=138||
1r
=139
1r
=140
1r
=141
1r
=142
1r
=143
1r
=144
1r
=145
1r
=146
1r
=147
1r
=148
1r
=149
1r
=150
1r
=151
1r
=152
1r
=153
1r
=154
1r
=155
1r
=156
1r
=157
1r
=158
1r
=159
1r
=160
1r
=161
1r
=162
1r
=163
1r
=164
1r
=165
1r
=166
1r
=167
1r
=168
2r
4r
8r
{8f/
=169
8a-\L
8b-\
8cc\
8dd-\J
8ee-\L
8cc\J
12dd-\L
12ee-\
12dd-\J
=170||
8cc/L
8b-/
8a/
8c/J
8e-/L
8g-/
8f/
8e-/J
=171
8d-/L
8A/
8c/
8F/J
8B-/L
8d-/
8c/
8B-/J
=172
8A-/L
8G-/
8Gn/
8B-/J
8d-/L
8g-/
8e/
8Bn/J
=173
8d-/L
8e/
8e-/
8d-/J
8c/L
[8a-/J
4a-/]}
=174
1r
=175
1r
=176
1r
=177
8r
8B/
12c/L
12e-/
12g/J
8b-/L
8g/J
4a-/
=178
8r
{16ee\LL
16ee-\JJ
12dd/L
12g-/
12a/J
8dd-\L
8b\J
4r
=179
8ff\L
8ee\
8ee-\
8dd\J
8dd-/L
8e/
8f/
8a-/J
=180
8cc/L
8a-/J
12b\L
12cc\
12b\J
8g/L
8f/
8e-/
8d-/J
=181
4c/}
4r
2r
=182
1r
=183
1r
=184
1r
=185
{2cc\
4a/
8g/L
[8f/J
=186||
2.f/]
8g/L
8a/J
=187
2b-\
4g/
8f/L
[8e/J
=188
2e/_
6e/]
6f/
6g/
=189
2a/
4f/
8e/L
[8d/J
=190
2.d/]
8e/L
8f/J
=191
2g/
4e/
8d/L
[8c/J
=192
8c/L]
8G/
8B-/
8d-/J
4c/}
4r
=193
2r
{8g/L
8g-/
8f/
8e/J
=194
8e-/L
8f/
8g/
8b-/J
8dd\L
8dd-\
8cc\
8a\J
=195
8cc/L
8a/J
12b-\L
12cc\
12b-\J
8a/L
8f/
8d/
8c/J
=196
8g/L
8a-/
8e/
8c/J
8d/L
8B-/
8G/
8A/J
=197
8c/L
8g/
8e/
8c/J
8g-/L
8e-/
8B/
8gn/J
=198
8f/L
8d/
8e-/
8en/J
8c/L
8c#/
8d/
8cn/J
=199
8B-/L
8G/
8A/
8c/J
8e/L
8g/
8e/
8c/J
=200
8cc/L
8g/J}
4r
2r
=201
{8c/L
8d/
8e/
8f/J
8e/L
8d/
8c/
8d/J
=202
8e/L
8f/
8e/
8d/J
8c/L
8B-/
8A/
8c/J
=203
4g/}
4r
2r
==
*-
